packages/bezier-icons/icons/chain-reaction.svg

<svg width="24" height="24" viewBox="0 0 24 24" fill="none" xmlns="http://www.w3.org/2000/svg">
<path fill-rule="evenodd" clip-rule="evenodd" d="M12 8C13.1107 8 14.0805 7.39637 14.5991 6.49927C16.9197 7.42908 18.6292 9.56634 18.9476 12.1331C19.0156 12.6812 19.515 13.0704 20.0631 13.0024C20.6112 12.9344 21.0004 12.435 20.9324 11.8869C20.5055 8.44574 18.137 5.605 14.9582 4.49802C14.7193 3.08014 13.4858 2 12 2C10.3431 2 9 3.34315 9 5C9 6.65685 10.3431 8 12 8ZM16.4016 18.5004C16.1462 18.0591 16 17.5466 16 17C16 15.3431 17.3431 14 19 14C20.6569 14 22 15.3431 22 17C22 18.6569 20.6569 20 19 20C18.6323 20 18.28 19.9338 17.9545 19.8128C15.4078 22.0097 11.7669 22.641 8.57094 21.2912C8.06217 21.0763 7.82392 20.4897 8.0388 19.9809C8.25367 19.4721 8.8403 19.2339 9.34907 19.4488C11.7338 20.456 14.4372 20.0437 16.4016 18.5004ZM8 17C8 18.6569 6.65685 20 5 20C3.34315 20 2 18.6569 2 17C2 16.0706 2.42262 15.2399 3.08616 14.6897C2.45299 11.382 3.72573 7.91375 6.49757 5.8218C6.93839 5.4891 7.56546 5.57676 7.89816 6.01758C8.23086 6.45841 8.14321 7.08548 7.70238 7.41818C5.63574 8.97791 4.64083 11.5236 4.99847 14H5C6.65685 14 8 15.3431 8 17Z" fill="#313234"/>
</svg>

<svg xmlns="http://www.w3.org/2000/svg" width="24" height="24" fill="none" viewBox="0 0 24 24"><path fill="#313234" fill-rule="evenodd" d="M12 8c1.11 0 2.08-.604 2.6-1.5a7.02 7.02 0 0 1 4.348 5.633 1 1 0 1 0 1.984-.246 9.02 9.02 0 0 0-5.974-7.389A3 3 0 1 0 12 8m4.402 10.5a3 3 0 1 1 1.553 1.312 9.02 9.02 0 0 1-9.384 1.48 1 1 0 0 1 .778-1.843 7.02 7.02 0 0 0 7.053-.949M8 17a3 3 0 1 1-4.914-2.31 9 9 0 0 1 3.412-8.868 1 1 0 0 1 1.204 1.596A7 7 0 0 0 4.998 14H5a3 3 0 0 1 3 3" clip-rule="evenodd"/></svg>
